X:1
T:Syrinx
T:Syrinx 
T:per flauto solo
T:Claude Debussy
T:a Louis Fleury
T:(revisione Vasco Magnolato)
T:1913
T:1913
C:Claude Debussy
Z:a Louis Fleury
Z:1913
L:1/8
Q:1/4=34
M:3/4
K:Db
V:1 treble nm="Flauto" snm="Fl."
V:1
"^Très modéré"!mf! (!tenuto!b3/2=a/4=b/4) (!tenuto!_a3/2=g/4)=a/4!>(! (_g/f/)=e/d/!>)! | %1
 (!tenuto!b3/2!>(!c'/4_c'/4) !breath!b4!>)! | %2
 (!tenuto!b3/2=a/4=b/4) (!tenuto!_a3/2=g/4)=a/4 (_g/!>(!f/)=e/d/!>)! | %3
!<(! (!tenuto!B3/2^F/4)=G/4!<)!!p!!<(! (!tenuto!=B-(3(B/)^F/)=G/ (3=c/^F/=G/(3d/{/f}=e/d/!<)! | %4
!p! _B3/2!<(!^F/4=G/4 =B2!<)! (3z/!<(! (A/_c/(3d/_f/a/)!<)! | z3/2!<(! a/ _c'4-!<)! | %6
 (c'4!mf! d'2) |!p!"^Retenu"[Q:1/4=30]!>(! (e'4 !breath!b2)!>)! || %8
[Q:1/4=40]"^Un peu mouvementé (mais très peu)"!p! (B3/2=A/4=B/4) (_A3/2=G/4=A/4) (_G/!>(!F/=E/_D/)!>)! | %9
 (B3/2=A/4=B/4) (_A3/2=G/4=A/4)!<(! (_G/_A/_B/d/!<)! | e/{/g}f/e/d/)!>(! B2- (B/A/D/E/!>)! | %11
!<(! G/4A/4B/4d/4e/4{/g}f/4e/4d/4!<)! B2-)!<(! !breath!B(3(d/e/g/)!<)! | %12
!mf! (=a-a/4_a/4=g/4_g/4) (e-e/4=d/4_d/4c/4)!>(! (=A-A/4_A/4=G/4_G/4)!>)! | %13
!p! (3(E{/G}F_F) !breath!E2!<(! (=F_F)!<)! | %14
 (3(!tenuto!E!>(!{/G}F_F)!>)!!p! (3(!tenuto!E!>(!{/G}=F_F)!>)!!p!"^Cédez"[Q:1/4=36] (3(!tenuto!E!>(!{/=F}_FE)!>)! | %15
!p!"^Rubato"[Q:1/4=44] (3(!tenuto!=D{/F}=E_D!<(! CD G!breath!__B)!<)! | %16
!mp!!>(!!>(! (3(!tenuto!=D{/G}F=D _D2 d2)!>)!!>)! |!p! (3(!tenuto!=D{/F}=E_D!<(! CD G__B)!<)! | %18
!p! (3(!tenuto!=D{/G}F=D _D2!<(! e2-)!<)! | (e(3d/_c/B/ A2-) (3(!breath!A/!<(!E/G/(3A/B/d/)!<)! | %20
 (e(3d/e/f/ e/d/_c/B/-)!>(! B2-!>)! | %21
 (3(!breath!B/_c/d/!<(!(3__e/d/_c/)!<)! (3(B/_c/__e/!<(!(3_f/__e/_c/)!<)! (B/4=A/4_A/4G/4=D/4G/4A/4=A/4) | %22
 !breath!!tenuto!B2"^(trille)" (e/8d/8e/8d/8e/8d/8e/8d/8e/8d/8e/8d/8e/8d/8e/8d/8 B2) | %23
"^(trille)" (g/8f/8g/8f/8g/8f/8g/8f/8g/8f/8g/8f/8g/8f/8g/8f/8 !breath!B2) (3f/8g/8a/8!fermata!b7/4- | %24
 !breath!b4!mf!!<(! b2- | %25
[Q:1/4=34]"^au Mouvt (très modéré)" (b3/2=a/4=b/4) (_a3/2=g/4=a/4)!<)! (_g/f/=e/!breath!d/) | %26
!f! (b2- b/d'/{/_f'}__e'/d'/ b2-) |!>(! (b3/2=a/4=b/4) (_a3/2=g/4=a/4 _g/f/=e/d/)!>)! || %28
[M:2/4]!p!!<(! (3(B/=A/=B/(3_A/=G/=A/!<)!!>(! _G/F/=E/D/)!>)! | %29
!p!!<(! (3(B/=A/=B/(3_A/=G/=A/!<)!!>(! _G/F/=E/D/-)!>)! || %30
[M:3/4][Q:1/4=32]"^En retenant jusqu'à la fin" D2[Q:1/4=30]"^\n"!<(! (3(D{/G}F=E)!<)![Q:1/4=28] D2- | %31
 D2-!>(! (3(D=A=G)[Q:1/4=26]"^\n" D2-!>)! | D2!p! =B4- | %33
[Q:1/4=24]"^Très retenu" B2- (5:4:5(!>!B=A=G[Q:1/4=22]F_E) |[Q:1/4=20]{/!fermata!E} !fermata!D6 |] %35

